img/svg/menu-decorate.svg

<svg width="192" height="409" viewBox="0 0 192 409" fill="none" xmlns="http://www.w3.org/2000/svg">
<g opacity="0.23">
<g clip-path="url(#clip0)">
<path d="M187.386 393.139L186.645 390.997L202.505 385.57L218.26 390.681L217.475 392.838L202.481 387.928L187.386 393.139Z" fill="#EFEAE1"/>
<path d="M177.365 383.118L176.624 380.976L202.639 372.12L228.483 380.458L227.699 382.615L202.616 374.477L177.365 383.118Z" fill="#EFEAE1"/>
<path d="M167.413 373.165L166.671 371.024L202.774 358.67L238.637 370.304L237.852 372.461L202.75 361.027L167.413 373.165Z" fill="#EFEAE1"/>
<path d="M146.952 353.405L147.736 351.248L166.876 357.504L202.908 345.22L238.703 356.786L257.972 350.146L258.713 352.287L238.609 359.213L202.885 347.577L166.921 359.93L146.952 353.405Z" fill="#EFEAE1"/>
<path d="M129.662 335.415L128.921 333.273L131.287 332.418L167.011 344.054L203.043 331.77L238.837 343.335L274.801 330.983L277.15 331.791L276.366 333.948L274.707 333.41L238.743 345.763L203.019 334.127L167.056 346.479L131.332 334.844L129.662 335.415Z" fill="#EFEAE1"/>
<path d="M119.71 325.463L118.968 323.321L131.421 318.968L167.145 330.603L203.177 318.319L238.971 329.885L274.935 317.532L287.303 321.637L286.519 323.794L274.842 319.96L238.878 332.312L203.154 320.677L167.19 333.029L131.466 321.394L119.71 325.463Z" fill="#EFEAE1"/>
<path d="M109.689 315.442L108.948 313.3L131.556 305.518L167.28 317.153L203.312 304.869L239.106 316.435L275.07 304.082L297.527 311.414L296.743 313.571L274.976 306.51L239.013 318.862L203.289 307.227L167.325 319.579L131.601 307.944L109.689 315.442Z" fill="#EFEAE1"/>
<path d="M99.7361 305.489L98.995 303.348L131.69 292.068L167.414 303.703L203.446 291.419L239.241 302.985L275.204 290.632L307.68 301.261L306.896 303.418L275.111 293.06L239.147 305.412L203.423 293.777L167.459 306.129L131.735 294.494L99.7361 305.489Z" fill="#EFEAE1"/>
<path d="M82.6385 289.092L83.354 286.866L95.8605 290.97L131.824 278.617L167.548 290.253L203.581 277.969L239.375 289.535L275.339 277.182L311.063 288.818L323.654 284.463L324.325 286.675L311.039 291.175L275.314 279.678L239.281 291.962L203.557 280.326L167.593 292.679L131.799 281.113L95.837 293.327L82.6385 289.092Z" fill="#EFEAE1"/>
<path d="M62.665 269.118L63.3805 266.893L95.9951 277.52L131.959 265.167L167.683 276.803L203.715 264.519L239.509 276.085L275.473 263.732L311.197 275.368L344.031 264.086L344.702 266.298L311.174 277.725L275.448 266.228L239.416 278.512L203.692 266.876L167.728 279.229L131.934 267.663L95.9715 279.877L62.665 269.118Z" fill="#EFEAE1"/>
<path d="M52.0331 257.787L51.292 255.645L60.4055 252.434L96.1295 264.07L132.093 251.717L167.817 263.353L203.85 251.069L239.644 262.635L275.608 250.282L311.332 261.918L347.296 249.565L356.347 252.594L355.563 254.751L347.271 252.061L311.308 264.275L275.583 252.778L239.55 265.062L203.826 253.426L167.862 265.779L132.068 254.213L96.1059 266.427L60.3805 254.93L52.0331 257.787Z" fill="#EFEAE1"/>
<path d="M42.0122 247.765L41.271 245.624L60.5401 238.984L96.2641 250.62L132.228 238.267L167.952 249.903L203.985 237.619L239.779 249.184L275.742 236.832L311.466 248.467L347.43 236.115L366.57 242.37L365.786 244.527L347.405 238.611L311.443 250.825L275.717 239.328L239.685 251.612L203.961 239.976L167.997 252.329L132.203 240.763L96.2405 252.977L60.5151 241.48L42.0122 247.765Z" fill="#EFEAE1"/>
<path d="M32.0597 237.813L31.3185 235.671L60.6746 225.534L96.3985 237.169L132.362 224.817L168.086 236.453L204.119 224.169L239.913 235.734L275.877 223.382L311.601 235.017L347.565 222.665L376.724 232.217L375.94 234.374L347.54 225.16L311.507 237.445L275.852 225.877L239.819 238.161L204.095 226.526L168.132 238.878L132.337 227.313L96.4436 239.595L60.6496 228.03L32.0597 237.813Z" fill="#EFEAE1"/>
<path d="M18.2568 224.71L19.041 222.553L24.8453 224.436L60.8092 212.084L96.5332 223.719L132.497 211.367L168.221 223.002L204.254 210.718L240.048 222.284L276.012 209.931L311.736 221.567L347.7 209.214L383.423 220.85L389.267 218.851L390.008 220.992L383.469 223.276L347.675 211.71L311.642 223.994L275.987 212.427L239.954 224.711L204.23 213.076L168.266 225.428L132.472 213.863L96.5783 226.145L60.7843 214.58L24.7517 226.864L18.2568 224.71Z" fill="#EFEAE1"/>
<path d="M2.49794 206.15L3.21345 203.925L24.9798 210.986L60.9437 198.634L96.6677 210.269L132.632 197.917L168.356 209.552L204.388 197.268L240.182 208.834L276.146 196.481L311.87 208.117L347.834 195.764L383.558 207.4L405.47 199.902L406.141 202.114L383.603 209.826L347.809 198.26L311.776 210.544L276.121 198.977L240.089 211.261L204.365 199.625L168.401 211.978L132.607 200.412L96.7128 212.695L60.9187 201.129L24.8862 213.413L2.49794 206.15Z" fill="#EFEAE1"/>
<path d="M12.7214 195.927L13.3669 193.771L25.1143 197.536L61.0782 185.183L96.8022 196.819L132.766 184.466L168.49 196.102L204.523 183.818L240.317 195.384L276.281 183.031L312.005 194.667L347.968 182.314L383.693 193.95L395.518 189.95L396.12 192.093L383.738 196.376L347.944 184.81L311.911 197.094L276.256 185.527L240.223 197.811L204.499 186.175L168.535 198.528L132.741 186.962L96.8473 199.245L61.0532 187.679L25.0207 199.963L12.7214 195.927Z" fill="#EFEAE1"/>
<path d="M22.875 185.773L23.5905 183.548L25.2488 184.086L61.2127 171.733L96.9367 183.369L132.901 171.016L168.625 182.652L204.657 170.368L240.451 181.934L276.415 169.581L312.139 181.217L348.103 168.864L383.827 180.5L385.496 179.928L386.168 182.14L383.872 182.926L348.078 171.36L312.045 183.644L276.39 172.077L240.358 184.361L204.634 172.725L168.67 185.078L132.876 173.512L96.9818 185.795L61.1878 174.229L25.1552 186.513L22.875 185.773Z" fill="#EFEAE1"/>
<path d="M41.9845 167.35L41.2433 165.208L61.3472 158.283L97.0712 169.919L133.104 157.635L168.759 169.202L204.792 156.918L240.586 168.483L276.479 156.201L312.274 167.766L348.237 155.414L368.207 161.939L367.423 164.095L348.212 157.91L312.18 170.194L276.525 158.627L240.492 170.911L204.768 159.275L168.804 171.628L133.01 160.062L97.1162 172.345L61.3222 160.779L41.9845 167.35Z" fill="#EFEAE1"/>
<path d="M61.3882 147.26L62.1037 145.035L97.2058 156.469L133.238 144.185L168.894 155.752L204.926 143.468L240.72 155.033L276.614 142.751L312.408 154.316L347.746 142.178L348.417 144.39L312.315 156.744L276.659 145.177L240.627 157.461L204.903 145.825L168.939 158.178L133.145 146.612L97.2508 158.895L61.3882 147.26Z" fill="#EFEAE1"/>
<path d="M71.5416 137.107L72.2572 134.881L97.3403 143.018L133.373 130.734L169.028 142.302L205.061 130.017L240.855 141.583L276.749 129.301L312.543 140.866L337.794 132.226L338.465 134.437L312.449 143.294L276.794 131.726L240.761 144.01L205.037 132.375L169.073 144.727L133.279 133.162L97.3853 145.444L71.5416 137.107Z" fill="#EFEAE1"/>
<path d="M81.7652 126.883L82.4807 124.658L97.4748 129.568L133.507 117.284L169.163 128.851L205.195 116.567L240.989 128.133L276.883 115.85L312.677 127.416L327.772 122.205L328.444 124.416L312.584 129.843L276.928 118.276L240.896 130.56L205.172 118.925L169.208 131.277L133.414 119.712L97.5199 131.994L81.7652 126.883Z" fill="#EFEAE1"/>
<path d="M91.9186 116.73L92.6341 114.504L97.6093 116.118L133.642 103.834L169.297 115.401L205.33 103.117L241.124 114.683L277.018 102.4L312.812 113.966L317.82 112.252L318.491 114.464L312.718 116.393L277.063 104.826L241.03 117.11L205.306 105.474L169.342 117.827L133.548 106.261L97.6544 118.544L91.9186 116.73Z" fill="#EFEAE1"/>
<path d="M107.597 101.738L106.926 99.5259L133.776 90.384L169.432 101.951L205.464 89.667L241.258 101.233L277.152 88.9501L303.825 97.5568L303.109 99.7823L277.197 91.376L241.165 103.66L205.441 92.0243L169.477 104.377L133.683 92.8112L107.597 101.738Z" fill="#EFEAE1"/>
<path d="M127.974 81.3606L127.303 79.1489L133.911 76.9338L169.566 88.5009L205.599 76.2169L241.393 87.7826L277.287 75.4999L283.851 77.5833L283.136 79.8088L277.332 77.9258L241.299 90.2098L205.575 78.5741L169.611 90.9268L133.817 79.3611L127.974 81.3606Z" fill="#EFEAE1"/>
<path d="M140.585 68.063L141.301 65.8375L169.701 75.0508L205.733 62.7668L241.527 74.3325L270.117 64.5492L270.788 66.7608L241.434 76.7597L205.71 65.124L169.746 77.4767L140.585 68.063Z" fill="#EFEAE1"/>
<path d="M150.809 57.8395L151.524 55.614L169.835 61.6007L205.868 49.3166L241.662 60.8823L260.096 54.5282L260.767 56.7398L241.568 63.3096L205.844 51.6739L169.88 64.0265L150.809 57.8395Z" fill="#EFEAE1"/>
<path d="M160.962 47.686L161.678 45.4605L169.97 48.1505L206.002 35.8665L241.796 47.4322L250.144 44.5758L250.815 46.7874L241.703 49.8594L205.979 38.2237L170.015 50.5764L160.962 47.686Z" fill="#EFEAE1"/>
<path d="M173.28 36.055L172.538 33.9134L206.137 22.4163L239.512 33.2436L238.728 35.4005L206.113 24.7735L173.28 36.055Z" fill="#EFEAE1"/>
</g>
</g>
<defs>
<clipPath id="clip0">
<rect x="206.36" y="0.0917969" width="286.059" height="291.838" transform="rotate(45 206.36 0.0917969)" fill="white"/>
</clipPath>
</defs>
</svg>

<svg width="192" height="409" viewBox="0 0 192 409" fill="none" xmlns="http://www.w3.org/2000/svg"><g clip-path="url(#clip0)" fill="#EFEAE1" opacity=".23"><path d="M187.386 393.139l-.741-2.142 15.86-5.427 15.755 5.111-.785 2.157-14.994-4.91-15.095 5.211zm-10.021-10.021l-.741-2.142 26.015-8.856 25.844 8.338-.784 2.157-25.083-8.138-25.251 8.641z"/><path d="M167.413 373.165l-.742-2.141 36.103-12.354 35.863 11.634-.785 2.157-35.102-11.434-35.337 12.138z"/><path d="M146.952 353.405l.784-2.157 19.14 6.256 36.032-12.284 35.795 11.566 19.269-6.64.741 2.141-20.104 6.926-35.724-11.636-35.964 12.353-19.969-6.525z"/><path d="M129.662 335.415l-.741-2.142 2.366-.855 35.724 11.636 36.032-12.284 35.794 11.565 35.964-12.352 2.349.808-.784 2.157-1.659-.538-35.964 12.353-35.724-11.636-35.963 12.352-35.724-11.635-1.67.571z"/><path d="M119.71 325.463l-.742-2.142 12.453-4.353 35.724 11.635 36.032-12.284 35.794 11.566 35.964-12.353 12.368 4.105-.784 2.157-11.677-3.834-35.964 12.352-35.724-11.635-35.964 12.352-35.724-11.635-11.756 4.069z"/><path d="M109.689 315.442l-.741-2.142 22.608-7.782 35.724 11.635 36.032-12.284 35.794 11.566 35.964-12.353 22.457 7.332-.784 2.157-21.767-7.061-35.963 12.352-35.724-11.635-35.964 12.352-35.724-11.635-21.912 7.498z"/><path d="M99.736 305.489l-.741-2.141 32.695-11.28 35.724 11.635 36.032-12.284 35.795 11.566 35.963-12.353 32.476 10.629-.784 2.157-31.785-10.358-35.964 12.352-35.724-11.635-35.964 12.352-35.724-11.635-31.999 10.995z"/><path d="M82.638 289.092l.716-2.226 12.507 4.104 35.963-12.353 35.724 11.636 36.033-12.284 35.794 11.566 35.964-12.353 35.724 11.636 12.591-4.355.671 2.212-13.286 4.5-35.725-11.497-36.033 12.284-35.724-11.636-35.964 12.353-35.794-11.566-35.962 12.214-13.199-4.235z"/><path d="M62.665 269.118l.715-2.225 32.615 10.627 35.964-12.353 35.724 11.636 36.032-12.284 35.794 11.566 35.964-12.353 35.724 11.636 32.834-11.282.671 2.212-33.528 11.427-35.726-11.497-36.032 12.284-35.724-11.636-35.964 12.353-35.794-11.566-35.962 12.214-33.307-10.759z"/><path d="M52.033 257.787l-.741-2.142 9.114-3.211 35.723 11.636 35.964-12.353 35.724 11.636 36.033-12.284 35.794 11.566 35.964-12.353 35.724 11.636 35.964-12.353 9.051 3.029-.784 2.157-8.292-2.69-35.963 12.214-35.725-11.497-36.033 12.284-35.724-11.636-35.964 12.353-35.794-11.566-35.962 12.214L60.38 254.93l-8.348 2.857z"/><path d="M42.012 247.765l-.741-2.141 19.27-6.64 35.723 11.636 35.964-12.353 35.724 11.636 36.033-12.284 35.794 11.565 35.963-12.352 35.724 11.635 35.964-12.352 19.14 6.255-.784 2.157-18.381-5.916-35.962 12.214-35.726-11.497-36.032 12.284-35.724-11.636-35.964 12.353-35.794-11.566-35.963 12.214-35.725-11.497-18.503 6.285z"/><path d="M32.06 237.813l-.742-2.142 29.357-10.137 35.724 11.635 35.963-12.352 35.724 11.636 36.033-12.284 35.794 11.565 35.964-12.352 35.724 11.635 35.964-12.352 29.159 9.552-.784 2.157-28.4-9.214-36.033 12.285-35.655-11.568-36.033 12.284-35.724-11.635-35.963 12.352-35.795-11.565-35.893 12.282L60.65 228.03l-28.59 9.783z"/><path d="M18.257 224.71l.784-2.157 5.804 1.883 35.964-12.352 35.724 11.635 35.964-12.352 35.724 11.635 36.033-12.284 35.794 11.566 35.964-12.353 35.724 11.636 35.964-12.353 35.723 11.636 5.844-1.999.741 2.141-6.539 2.284-35.794-11.566-36.033 12.284-35.655-11.567-36.033 12.284-35.724-11.635-35.964 12.352-35.794-11.565-35.894 12.282-35.794-11.565-36.032 12.284-6.495-2.154z"/><path d="M2.498 206.15l.715-2.225 21.767 7.061 35.964-12.352 35.724 11.635 35.964-12.352 35.724 11.635 36.032-12.284 35.794 11.566 35.964-12.353 35.724 11.636 35.964-12.353 35.724 11.636 21.912-7.498.671 2.212-22.538 7.712-35.794-11.566-36.033 12.284-35.655-11.567-36.032 12.284-35.724-11.636-35.964 12.353-35.794-11.566-35.894 12.283-35.794-11.566-36.033 12.284-22.388-7.263z"/><path d="M12.721 195.927l.646-2.156 11.747 3.765 35.964-12.353 35.724 11.636 35.964-12.353 35.724 11.636 36.033-12.284 35.794 11.566 35.964-12.353 35.724 11.636 35.963-12.353 35.725 11.636 11.825-4 .602 2.143-12.382 4.283-35.794-11.566-36.033 12.284-35.655-11.567-36.033 12.284-35.724-11.636-35.964 12.353-35.794-11.566-35.894 12.283-35.794-11.566-36.032 12.284-12.3-4.036z"/><path d="M22.875 185.773l.715-2.225 1.659.538 35.964-12.353 35.724 11.636 35.964-12.353 35.724 11.636 36.032-12.284 35.794 11.566 35.964-12.353 35.724 11.636 35.964-12.353 35.724 11.636 1.669-.572.672 2.212-2.296.786-35.794-11.566-36.033 12.284-35.655-11.567-36.032 12.284-35.724-11.636-35.964 12.353-35.794-11.566-35.894 12.283-35.794-11.566-36.033 12.284-2.28-.74z"/><path d="M41.984 167.35l-.74-2.142 20.103-6.925 35.724 11.636 36.033-12.284 35.655 11.567 36.033-12.284 35.794 11.565 35.893-12.282 35.795 11.565 35.963-12.352 19.97 6.525-.784 2.156-19.211-6.185-36.032 12.284-35.655-11.567-36.033 12.284-35.724-11.636-35.964 12.353-35.794-11.566-35.894 12.283-35.794-11.566-19.338 6.571z"/><path d="M61.388 147.26l.716-2.225 35.102 11.434 36.032-12.284 35.656 11.567 36.032-12.284 35.794 11.565 35.894-12.282 35.794 11.565 35.338-12.138.671 2.212-36.102 12.354-35.656-11.567-36.032 12.284-35.724-11.636-35.964 12.353-35.794-11.566-35.894 12.283-35.863-11.635z"/><path d="M71.542 137.107l.715-2.226 25.083 8.137 36.033-12.284 35.655 11.568 36.033-12.285 35.794 11.566 35.894-12.282 35.794 11.565 25.251-8.64.671 2.211-26.016 8.857-35.655-11.568-36.033 12.284-35.724-11.635-35.964 12.352-35.794-11.565-35.894 12.282-25.843-8.337z"/><path d="M81.765 126.883l.716-2.225 14.994 4.91 36.032-12.284 35.656 11.567 36.032-12.284 35.794 11.566 35.894-12.283 35.794 11.566 15.095-5.211.672 2.211-15.86 5.427-35.656-11.567-36.032 12.284-35.724-11.635-35.964 12.352-35.794-11.565-35.894 12.282-15.755-5.111z"/><path d="M91.919 116.73l.715-2.226 4.975 1.614 36.033-12.284 35.655 11.567 36.033-12.284 35.794 11.566 35.894-12.283 35.794 11.566 5.008-1.714.671 2.212-5.773 1.929-35.655-11.567-36.033 12.284-35.724-11.636-35.964 12.353-35.794-11.566-35.894 12.283-5.735-1.814z"/><path d="M107.597 101.738l-.671-2.212 26.85-9.142 35.656 11.567 36.032-12.284 35.794 11.566 35.894-12.283 26.673 8.607-.716 2.225-25.912-8.406-36.032 12.284-35.724-11.636-35.964 12.353-35.794-11.566-26.086 8.927z"/><path d="M127.974 81.36l-.671-2.211 6.608-2.215L169.566 88.5l36.033-12.284 35.794 11.566L277.287 75.5l6.564 2.083-.715 2.226-5.804-1.883-36.033 12.284-35.724-11.636-35.964 12.353-35.794-11.566-5.843 2z"/><path d="M140.585 68.063l.716-2.225 28.4 9.213 36.032-12.284 35.794 11.565 28.59-9.783.671 2.212-29.354 9.999-35.724-11.636-35.964 12.353-29.161-9.414z"/><path d="M150.809 57.84l.715-2.226 18.311 5.987 36.033-12.284 35.794 11.565 18.434-6.354.671 2.212-19.199 6.57-35.724-11.636-35.964 12.352-19.071-6.186z"/><path d="M160.962 47.686l.716-2.225 8.292 2.69 36.032-12.285 35.794 11.566 8.348-2.856.671 2.211-9.112 3.072-35.724-11.635-35.964 12.352-9.053-2.89zm12.318-11.631l-.742-2.142 33.599-11.497 33.375 10.828-.784 2.157-32.615-10.628-32.833 11.282z"/></g><defs><clipPath id="clip0"><path transform="rotate(45 206.36 .092)" fill="#fff" d="M206.36.092h286.059V291.93H206.36z"/></clipPath></defs></svg>
